!!!COM: Beethoven
!!!OTL: 24 Variationen uber Venni Amore von V. Righini
!!!Variation: Variation 21 a
**function	**harm	**kern	**kern
*	*	*clefF4	*clefG2
*	*	*k[f#c#]	*k[f#c#]
*M2/4	*M2/4	*M2/4	*M2/4
*D:	*D:	*D:	*D:
*	*	*	*^
16T	16V7/vi	16r	16ff#	16f#
=377	=377	=377	=377	=377
*	*	*^	*	*
2T	2V7/vi	[2FF# [2F#	4r	[2f#	4ff#
.	.	.	4AA#	.	4cc# 4ee
=378	=378	=378	=378	=378	=378
4T	4ic/vi	2FF#_ 2F#_	4BB	4f#]	4b 4dd
4T	4V7/vi	.	4C#	4e	4a# 4cc#
=379	=379	=379	=379	=379	=379
4T	4ic/vi	4FF#_ 4F#]	4D	4d 4f#	4b
4T	4viioD7/V/vi	4FF#]	4E#	4d 4g#	8bL
.	.	.	.	.	8cc#J
*	*	*	*	*v	*v
=380	=380	=380	=380	=380
2T	2V/vi	2FF#	2F#	[4c# [4f# [4a#
.	.	.	.	8.c#L] 8.f#] 8.a#]
*	*	*	*	*^
.	.	.	.	16AJk 16d	16aJk
=381	=381	=381	=381	=381	=381
2T	2Ib	(2FF# [2AA	(2F#	4A 4d	[2a
.	.	.	.	16c#LL	.
.	.	.	.	16d	.
.	.	.	.	16e	.
.	.	.	.	16f#JJ	.
=382	=382	=382	=382	=382	=382
2T	2V7c	(2EE) 2AA_	2E	2g	4a]
.	.	.	.	.	16g#LL
.	.	.	.	.	16a
.	.	.	.	.	16b
.	.	.	.	.	16cc#JJ
*	*	*	*	*v	*v
=383	=383	=383	=383	=383
2T	2I	4DD) 4AA]	4D)	8f# 8dd
.	.	.	.	8r
*	*	*v	*v	*
.	.	(16DDLL	8A 8d 8f#
.	.	16EE	.
.	.	16FF#	8r
.	.	16GGJJ)	.
=384	=384	=384	=384
2D	2V	8AA'	8A' 8c#' 8e'
.	.	8r	8r
.	.	8AAA'	4r
.	.	8r	.
*-	*-	*-	*-
